icons/pixelfed-line.svg

<svg viewBox="0 0 24 24" fill="currentColor" xmlns="http://www.w3.org/2000/svg"><path d="M12.001 2C17.5238 2 22.001 6.47715 22.001 12C22.001 17.5228 17.5238 22 12.001 22C6.47813 22 2.00098 17.5228 2.00098 12C2.00098 6.47715 6.47813 2 12.001 2ZM12.001 4C7.5827 4 4.00098 7.58172 4.00098 12C4.00098 16.4183 7.5827 20 12.001 20C16.4193 20 20.001 16.4183 20.001 12C20.001 7.58172 16.4193 4 12.001 4ZM13.0322 8.09865C14.7448 8.09865 16.1331 9.44411 16.1331 11.1038C16.1331 12.7635 14.7448 14.109 13.0322 14.109H11.2143L8.61941 16.5804V9.83241C8.61941 8.87488 9.42035 8.09865 10.4084 8.09865H13.0322Z"/></svg>

<svg xmlns="http://www.w3.org/2000/svg" viewBox="0 0 24 24">
    <g>
        <path fill="none" d="M0 0H24V24H0z"/>
        <path d="M12 2c5.523 0 10 4.477 10 10s-4.477 10-10 10S2 17.523 2 12 6.477 2 12 2zm0 2c-4.418 0-8 3.582-8 8s3.582 8 8 8 8-3.582 8-8-3.582-8-8-8zm1.031 4.099c1.713 0 3.101 1.345 3.101 3.005s-1.388 3.005-3.1 3.005h-1.819L8.618 16.58V9.832c0-.957.801-1.733 1.79-1.733h2.623z"/>
    </g>
</svg>
